X:1
T:Congo, LMD
T:Congo, LMD
T:James Henry Fillmore, Sr., 1877
T:Public Domain Courtesy of the Cyber Hymnal™
C:James Henry Fillmore, Sr., 1877
Z:Public Domain
Z:Courtesy of the Cyber Hymnal™
%%score ( 1 2 ) ( 3 4 )
L:1/8
Q:1/4=97
M:3/4
K:G
V:1 treble 
V:2 treble 
V:3 bass 
V:4 bass 
V:1
 DD D | [DG]3 [DG] [DG][DA] | [GB]3 [GB] [Gd][Ge] | [Gd][GB] [GA]2 [GA]2 | [FA]3 D DD | %5
 [DG]3 [DG] [DG][DA] | [GB]3 [GB] [Gd][Ge] | [Gd][GB] G2 [FA]2 | G3 [Gd] [Gd][Gd] | %9
 [Ge]3 [Ge] [Gd][GB] | [Gd]3 [GB] [GB][GB] | [Gc]3 [Gc] [GB]G | [FA]3 D DD | [DG]3 [DG] [DG][DA] | %14
 [GB]3 [GB] [Gd][Ge] | [Gd][GB] G2 [FA]2 | G3 |] %17
V:2
 DD D | x6 | x6 | x6 | x3 D DD | x6 | x6 | x2 G2 x2 | G3 x3 | x6 | x6 | x5 G | x3 D DD | x6 | x6 | %15
 x2 G2 x2 | G3 |] %17
V:3
 [G,B,][G,B,] [G,B,] | [G,B,]3 [G,B,] [G,B,][G,C] | [G,D]3 [G,D] [G,B,][G,C] | %3
 [G,B,][G,D] [E,^C]2 [A,C]2 | [D,D]3 [D,D] [E,D][F,C] | [G,B,]3 [G,B,] [G,B,][G,C] | %6
 [G,D]3 [G,D] [G,B,][G,C] | [G,B,]G, [D,B,]2 [D,C]2 | [G,,G,B,]3 [G,B,] [G,B,][G,B,] | %9
 [C,C]3 [E,C] [G,B,]G, | [G,B,]3 [G,D] [G,D][G,D] | [G,E]3 [G,E] [G,D][G,B,] | %12
 [D,D]3 [D,D] [E,D][F,C] | [G,B,]3 [G,B,] [G,B,][G,C] | [G,D]3 [G,D] [G,B,][G,C] | %15
 [G,B,]G, [D,B,]2 [D,C]2 | [G,,G,B,]3 |] %17
V:4
 x3 | x6 | x6 | x6 | x6 | x6 | x6 | x G, x4 | x6 | x5 G, | x6 | x6 | x6 | x6 | x6 | x G, x4 | x3 |] %17

